theme/static/images/social_icons/mastodon.svg

<?xml version="1.0" encoding="UTF-8" standalone="no"?>
<svg
   width="61.076954mm"
   height="65.47831mm"
   viewBox="0 0 216.4144 232.00976"
   version="1.1"
   id="svg6"
   xmlns="http://www.w3.org/2000/svg"
   xmlns:svg="http://www.w3.org/2000/svg">
  <defs
     id="defs10" />
  <path
     id="path2"
     style="fill:#fff;fill-opacity:1;stroke-width:1.06667"
     d="M 115.05664 0 C 83.417974 0.25866667 52.984047 3.6847447 35.248047 11.830078 C 35.248047 11.830078 0.072265625 27.564666 0.072265625 81.25 C 0.072265625 93.543333 -0.16667709 108.24208 0.22265625 123.83008 C 1.4999896 176.33141 9.8473382 228.07387 58.388672 240.92188 C 80.770005 246.84588 99.986891 248.08699 115.46289 247.23633 C 143.52822 245.68033 159.2832 237.2207 159.2832 237.2207 L 158.35742 216.85742 C 158.35742 216.85742 138.30134 223.18082 115.77734 222.41016 C 93.461344 221.64482 69.902302 220.00414 66.292969 192.60547 C 65.959635 190.1988 65.792969 187.62454 65.792969 184.92188 C 65.792969 184.92187 87.700224 190.27683 115.46289 191.54883 C 132.43889 192.32749 148.35801 190.55433 164.52734 188.625 C 195.53534 184.92233 222.5344 165.81671 225.92773 148.35938 C 231.2744 120.85937 230.83398 81.25 230.83398 81.25 C 230.83398 27.564666 195.66016 11.830078 195.66016 11.830078 C 177.92549 3.6847447 147.47265 0.25866667 115.83398 0 L 115.05664 0 z M 79.25 41.947266 C 92.428667 41.947266 102.40719 47.012531 109.00586 57.144531 L 115.42188 67.898438 L 121.83789 57.144531 C 128.43522 47.012531 138.41375 41.947266 151.59375 41.947266 C 162.98308 41.947266 172.15997 45.951052 179.16797 53.761719 C 185.9613 61.572385 189.34375 72.130682 189.34375 85.416016 L 189.34375 150.41992 L 163.58984 150.41992 L 163.58984 87.326172 C 163.58984 74.026172 157.99411 67.275391 146.80078 67.275391 C 134.42478 67.275391 128.22266 75.282521 128.22266 91.117188 L 128.22266 125.65234 L 102.62109 125.65234 L 102.62109 91.117188 C 102.62109 75.282521 96.417016 67.275391 84.041016 67.275391 C 72.847682 67.275391 67.251953 74.026172 67.251953 87.326172 L 67.251953 150.41992 L 41.498047 150.41992 L 41.498047 85.416016 C 41.498047 72.130682 44.881115 61.572385 51.675781 53.761719 C 58.682448 45.951052 67.859333 41.947266 79.25 41.947266 z "
     transform="scale(0.93749999)" />
</svg>

<?xml version="1.0" encoding="UTF-8"?>
<svg width="61.077mm" height="65.478mm" version="1.1" viewBox="0 0 216.41 232.01" xmlns="http://www.w3.org/2000/svg"><path transform="scale(.9375)" d="m115.06 0c-31.639 0.25867-62.073 3.6847-79.809 11.83 0 0-35.176 15.735-35.176 69.42 0 12.293-0.23894 26.992 0.15039 42.58 1.2773 52.501 9.6247 104.24 58.166 117.09 22.381 5.924 41.598 7.1651 57.074 6.3144 28.065-1.556 43.82-10.016 43.82-10.016l-0.92578-20.363s-20.056 6.3234-42.58 5.5527c-22.316-0.76534-45.875-2.406-49.484-29.805-0.33333-2.4067-0.5-4.9809-0.5-7.6836 0-1e-5 21.907 5.355 49.67 6.627 16.976 0.77866 32.895-0.9945 49.064-2.9238 31.008-3.7027 58.007-22.808 61.4-40.266 5.3467-27.5 4.9062-67.109 4.9062-67.109 0-53.685-35.174-69.42-35.174-69.42-17.735-8.1453-48.188-11.571-79.826-11.83h-0.77734zm-35.807 41.947c13.179 0 23.157 5.0653 29.756 15.197l6.416 10.754 6.416-10.754c6.5973-10.132 16.576-15.197 29.756-15.197 11.389 0 20.566 4.0038 27.574 11.814 6.7933 7.8107 10.176 18.369 10.176 31.654v65.004h-25.754v-63.094c0-13.3-5.5957-20.051-16.789-20.051-12.376 0-18.578 8.0071-18.578 23.842v34.535h-25.602v-34.535c0-15.835-6.2041-23.842-18.58-23.842-11.193 0-16.789 6.7508-16.789 20.051v63.094h-25.754v-65.004c0-13.285 3.3831-23.844 10.178-31.654 7.0067-7.8107 16.184-11.814 27.574-11.814z" fill="#fff" stroke-width="1.0667"/></svg>
